/* XPM */
static char *wave[] = {
"44 84 13 1",
"a c #292923",
"b c #393523",
"c c #4a4023",
"d c #5a4c23",
"e c #6b5723",
"f c #7b6323",
"g c #8c6e22",
"h c #9c7a22",
"i c #ac8622",
"j c #bd9122",
"k c #cd9d22",
"l c #dea822",
"m c #eeb422",
"mmmmmmmmmmmmmmmmmmmmmmmmmmmmmmmmmmmmmmlifcba",
"mmmmmmmmmmmmmmmmmmmmmmmmmmmmmmmmmmmmkeaaaaaa",
"mmmmmmmmmmmmmmmmmmmmmmmmmmmmmmmmmmleaaaaaaaa",
"mmmmmmmmmmmmmmmmmmmmmmmmmmmmmmmmmibaaaaaaaaa",
"mmmmmmmmmmmmmmmmmmmmmmmmmmmmmmmmgaaaaaaaaaaa",
"mmmmmmmmmmmmmmmmmmmmmmmmmmmmmmmeaaaaaaaaaaaa",
"mmmmmmmmmmmmmmmmmmmmmmmmmmmmmmfaaaaaaaaaaaaa",
"mmmmmmmmmmmmmmmmmmmmmmmmmmmmmgaaaaaaaaaaaaaa",
"mmmmmmmmmmmmmmmmmmmmmmmmmmmmiaaaaaaaaaaaaaaa",
"mmmmmmmmmmmmmmmmmmmmmmmmmmmlbaaaaaaaaaaaaaaa",
"mmmmmmmmmmmmmmmmmmmmmmmmmmmeaaaaaaaaaaaaaaaa",
"mmmmmmmmmmmmmmmmmmmmmmmmmmjaaaaaaaaaaaaaaaaa",
"mmmmmmmmmmmmmmmmmmmmmmmmmmcaaaaaaaaaaaaaaaaa",
"mmmmmmmmmmmmmmmmmmmmmmmmmiaaaaaaaaaaaaaaaaaa",
"mmmmmmmmmmmmmmmmmmmmmmmmmdaaaaaaaaaaaaaaaaaa",
"mmmmmmmmmmmmmmmmmmmmmmmmkaaaaaaaaaaaaaaaaaaa",
"mmmmmmmmmmmmmmmmmmmmmmmmfaaaaaaaaaaaaaaaaaaa",
"mmmmmmmmmmmmmmmmmmmmmmmmbaaaaaaaaaaaaaaaaaaa",
"mmmmmmmmmmmmmmmmmmmmmmmjaaaaaaaaaaaaaaaaaaaa",
"mmmmmmmmmmmmmmmmmmmmmmmfaaaaaaaaaaaaaaaaaaaa",
"mmmmmmmmmmmmmmmmmmmmmmmcaaaaaaaaaaaaaaaaaaaa",
"mmmmmmmmmmmmmmmmmmmmmmlaaaaaaaaaaaaaaaaaaaaa",
"mmmmmmmmmmmmmmmmmmmmmmjaaaaaaaaaaaaaaaaaaaaa",
"mmmmmmmmmmmmmmmmmmmmmmhaaaaaaaaaaaaaaaaaaaaa",
"mmmmmmmmmmmmmmmmmmmmmmfaaaaaaaaaaaaaaaaaaaaa",
"mmmmmmmmmmmmmmmmmmmmmmdaaaaaaaaaaaaaaaaaaaaa",
"mmmmmmmmmmmmmmmmmmmmmmcaaaaaaaaaaaaaaaaaaaaa",
"mmmmmmmmmmmmmmmmmmmmmmbaaaaaaaaaaaaaaaaaaaaa",
"mmmmmmmmmmmmmmmmmmmmmmaaaaaaaaaaaaaaaaaaaaaa",
"mmmmmmmmmmmmmmmmmmmmmmaaaaaaaaaaaaaaaaaaaaaa",
"mmmmmmmmmmmmmmmmmmmmmmaaaaaaaaaaaaaaaaaaaaaa",
"mmmmmmmmmmmmmmmmmmmmmmaaaaaaaaaaaaaaaaaaaaaa",
"mmmmmmmmmmmmmmmmmmmmmmaaaaaaaaaaaaaaaaaaaaaa",
"mmmmmmmmmmmmmmmmmmmmmmaaaaaaaaaaaaaaaaaaaaaa",
"mmmmmmmmmmmmmmmmmmmmmmaaaaaaaaaaaaaaaaaaaaaa",
"mmmmmmmmmmmmmmmmmmmmmmaaaaaaaaaaaaaaaaaaaaaa",
"mmmmmmmmmmmmmmmmmmmmmmaaaaaaaaaaaaaaaaaaaaaa",
"mmmmmmmmmmmmmmmmmmmmmmaaaaaaaaaaaaaaaaaaaaaa",
"mmmmmmmmmmmmmmmmmmmmmmaaaaaaaaaaaaaaaaaaaaaa",
"mmmmmmmmmmmmmmmmmmmmmmaaaaaaaaaaaaaaaaaaaaaa",
"mmmmmmmmmmmmmmmmmmmmmmaaaaaaaaaaaaaaaaaaaaaa",
"mmmmmmmmmmmmmmmmmmmmmmaaaaaaaaaaaaaaaaaaaaaa",
"mmmmmmmmmmmmmmmmmmmmmmaaaaaaaaaaaaaaaaaaaaaa",
"mmmmmmmmmmmmmmmmmmmmmmaaaaaaaaaaaaaaaaaaaaaa",
"mmmmmmmmmmmmmmmmmmmmmmaaaaaaaaaaaaaaaaaaaaaa",
"mmmmmmmmmmmmmmmmmmmmmmaaaaaaaaaaaaaaaaaaaaaa",
"mmmmmmmmmmmmmmmmmmmmmmaaaaaaaaaaaaaaaaaaaaaa",
"mmmmmmmmmmmmmmmmmmmmmmaaaaaaaaaaaaaaaaaaaaaa",
"mmmmmmmmmmmmmmmmmmmmmmaaaaaaaaaaaaaaaaaaaaaa",
"mmmmmmmmmmmmmmmmmmmmmmaaaaaaaaaaaaaaaaaaaaaa",
"mmmmmmmmmmmmmmmmmmmmmmaaaaaaaaaaaaaaaaaaaaaa",
"mmmmmmmmmmmmmmmmmmmmmmaaaaaaaaaaaaaaaaaaaaaa",
"mmmmmmmmmmmmmmmmmmmmmmaaaaaaaaaaaaaaaaaaaaaa",
"mmmmmmmmmmmmmmmmmmmmmmaaaaaaaaaaaaaaaaaaaaaa",
"mmmmmmmmmmmmmmmmmmmmmmaaaaaaaaaaaaaaaaaaaaaa",
"mmmmmmmmmmmmmmmmmmmmmmaaaaaaaaaaaaaaaaaaaaaa",
"mmmmmmmmmmmmmmmmmmmmmlaaaaaaaaaaaaaaaaaaaaaa",
"mmmmmmmmmmmmmmmmmmmmmkaaaaaaaaaaaaaaaaaaaaaa",
"mmmmmmmmmmmmmmmmmmmmmjaaaaaaaaaaaaaaaaaaaaaa",
"mmmmmmmmmmmmmmmmmmmmmhaaaaaaaaaaaaaaaaaaaaaa",
"mmmmmmmmmmmmmmmmmmmmmfaaaaaaaaaaaaaaaaaaaaaa",
"mmmmmmmmmmmmmmmmmmmmmdaaaaaaaaaaaaaaaaaaaaaa",
"mmmmmmmmmmmmmmmmmmmmmbaaaaaaaaaaaaaaaaaaaaaa",
"mmmmmmmmmmmmmmmmmmmmkaaaaaaaaaaaaaaaaaaaaaaa",
"mmmmmmmmmmmmmmmmmmmmhaaaaaaaaaaaaaaaaaaaaaaa",
"mmmmmmmmmmmmmmmmmmmmdaaaaaaaaaaaaaaaaaaaaaaa",
"mmmmmmmmmmmmmmmmmmmlaaaaaaaaaaaaaaaaaaaaaaaa",
"mmmmmmmmmmmmmmmmmmmhaaaaaaaaaaaaaaaaaaaaaaaa",
"mmmmmmmmmmmmmmmmmmmcaaaaaaaaaaaaaaaaaaaaaaaa",
"mmmmmmmmmmmmmmmmmmjaaaaaaaaaaaaaaaaaaaaaaaaa",
"mmmmmmmmmmmmmmmmmmeaaaaaaaaaaaaaaaaaaaaaaaaa",
"mmmmmmmmmmmmmmmmmkaaaaaaaaaaaaaaaaaaaaaaaaaa",
"mmmmmmmmmmmmmmmmmdaaaaaaaaaaaaaaaaaaaaaaaaaa",
"mmmmmmmmmmmmmmmmiaaaaaaaaaaaaaaaaaaaaaaaaaaa",
"mmmmmmmmmmmmmmmlbaaaaaaaaaaaaaaaaaaaaaaaaaaa",
"mmmmmmmmmmmmmmmeaaaaaaaaaaaaaaaaaaaaaaaaaaaa",
"mmmmmmmmmmmmmmgaaaaaaaaaaaaaaaaaaaaaaaaaaaaa",
"mmmmmmmmmmmmmhaaaaaaaaaaaaaaaaaaaaaaaaaaaaaa",
"mmmmmmmmmmmmiaaaaaaaaaaaaaaaaaaaaaaaaaaaaaaa",
"mmmmmmmmmmmgaaaaaaaaaaaaaaaaaaaaaaaaaaaaaaaa",
"mmmmmmmmmleaaaaaaaaaaaaaaaaaaaaaaaaaaaaaaaaa",
"mmmmmmmmibaaaaaaaaaaaaaaaaaaaaaaaaaaaaaaaaaa",
"mmmmmmicaaaaaaaaaaaaaaaaaaaaaaaaaaaaaaaaaaaa",
"mlkhebaaaaaaaaaaaaaaaaaaaaaaaaaaaaaaaaaaaaaa"};
