/* XPM */
static char *wave[] = {
"44 84 13 1",
"a c #666666",
"b c #716c60",
"c c #7d735b",
"d c #887a55",
"e c #93804f",
"f c #9f864a",
"g c #aa8d44",
"h c #b5943e",
"i c #c19a39",
"j c #cca033",
"k c #d7a72d",
"l c #e3ae28",
"m c #eeb422",
"abcfilmmmmmmmmmmmmmmmmmmmmmmmmmmmmmmmmmmmmmm",
"aaaaaaekmmmmmmmmmmmmmmmmmmmmmmmmmmmmmmmmmmmm",
"aaaaaaaaelmmmmmmmmmmmmmmmmmmmmmmmmmmmmmmmmmm",
"aaaaaaaaabimmmmmmmmmmmmmmmmmmmmmmmmmmmmmmmmm",
"aaaaaaaaaaagmmmmmmmmmmmmmmmmmmmmmmmmmmmmmmmm",
"aaaaaaaaaaaaemmmmmmmmmmmmmmmmmmmmmmmmmmmmmmm",
"aaaaaaaaaaaaafmmmmmmmmmmmmmmmmmmmmmmmmmmmmmm",
"aaaaaaaaaaaaaagmmmmmmmmmmmmmmmmmmmmmmmmmmmmm",
"aaaaaaaaaaaaaaaimmmmmmmmmmmmmmmmmmmmmmmmmmmm",
"aaaaaaaaaaaaaaablmmmmmmmmmmmmmmmmmmmmmmmmmmm",
"aaaaaaaaaaaaaaaaemmmmmmmmmmmmmmmmmmmmmmmmmmm",
"aaaaaaaaaaaaaaaaajmmmmmmmmmmmmmmmmmmmmmmmmmm",
"aaaaaaaaaaaaaaaaacmmmmmmmmmmmmmmmmmmmmmmmmmm",
"aaaaaaaaaaaaaaaaaaimmmmmmmmmmmmmmmmmmmmmmmmm",
"aaaaaaaaaaaaaaaaaadmmmmmmmmmmmmmmmmmmmmmmmmm",
"aaaaaaaaaaaaaaaaaaakmmmmmmmmmmmmmmmmmmmmmmmm",
"aaaaaaaaaaaaaaaaaaafmmmmmmmmmmmmmmmmmmmmmmmm",
"aaaaaaaaaaaaaaaaaaabmmmmmmmmmmmmmmmmmmmmmmmm",
"aaaaaaaaaaaaaaaaaaaajmmmmmmmmmmmmmmmmmmmmmmm",
"aaaaaaaaaaaaaaaaaaaafmmmmmmmmmmmmmmmmmmmmmmm",
"aaaaaaaaaaaaaaaaaaaacmmmmmmmmmmmmmmmmmmmmmmm",
"aaaaaaaaaaaaaaaaaaaaalmmmmmmmmmmmmmmmmmmmmmm",
"aaaaaaaaaaaaaaaaaaaaajmmmmmmmmmmmmmmmmmmmmmm",
"aaaaaaaaaaaaaaaaaaaaahmmmmmmmmmmmmmmmmmmmmmm",
"aaaaaaaaaaaaaaaaaaaaafmmmmmmmmmmmmmmmmmmmmmm",
"aaaaaaaaaaaaaaaaaaaaadmmmmmmmmmmmmmmmmmmmmmm",
"aaaaaaaaaaaaaaaaaaaaacmmmmmmmmmmmmmmmmmmmmmm",
"aaaaaaaaaaaaaaaaaaaaabmmmmmmmmmmmmmmmmmmmmmm",
"aaaaaaaaaaaaaaaaaaaaaammmmmmmmmmmmmmmmmmmmmm",
"aaaaaaaaaaaaaaaaaaaaaammmmmmmmmmmmmmmmmmmmmm",
"aaaaaaaaaaaaaaaaaaaaaammmmmmmmmmmmmmmmmmmmmm",
"aaaaaaaaaaaaaaaaaaaaaammmmmmmmmmmmmmmmmmmmmm",
"aaaaaaaaaaaaaaaaaaaaaammmmmmmmmmmmmmmmmmmmmm",
"aaaaaaaaaaaaaaaaaaaaaammmmmmmmmmmmmmmmmmmmmm",
"aaaaaaaaaaaaaaaaaaaaaammmmmmmmmmmmmmmmmmmmmm",
"aaaaaaaaaaaaaaaaaaaaaammmmmmmmmmmmmmmmmmmmmm",
"aaaaaaaaaaaaaaaaaaaaaammmmmmmmmmmmmmmmmmmmmm",
"aaaaaaaaaaaaaaaaaaaaaammmmmmmmmmmmmmmmmmmmmm",
"aaaaaaaaaaaaaaaaaaaaaammmmmmmmmmmmmmmmmmmmmm",
"aaaaaaaaaaaaaaaaaaaaaammmmmmmmmmmmmmmmmmmmmm",
"aaaaaaaaaaaaaaaaaaaaaammmmmmmmmmmmmmmmmmmmmm",
"aaaaaaaaaaaaaaaaaaaaaammmmmmmmmmmmmmmmmmmmmm",
"aaaaaaaaaaaaaaaaaaaaaammmmmmmmmmmmmmmmmmmmmm",
"aaaaaaaaaaaaaaaaaaaaaammmmmmmmmmmmmmmmmmmmmm",
"aaaaaaaaaaaaaaaaaaaaaammmmmmmmmmmmmmmmmmmmmm",
"aaaaaaaaaaaaaaaaaaaaaammmmmmmmmmmmmmmmmmmmmm",
"aaaaaaaaaaaaaaaaaaaaaammmmmmmmmmmmmmmmmmmmmm",
"aaaaaaaaaaaaaaaaaaaaaammmmmmmmmmmmmmmmmmmmmm",
"aaaaaaaaaaaaaaaaaaaaaammmmmmmmmmmmmmmmmmmmmm",
"aaaaaaaaaaaaaaaaaaaaaammmmmmmmmmmmmmmmmmmmmm",
"aaaaaaaaaaaaaaaaaaaaaammmmmmmmmmmmmmmmmmmmmm",
"aaaaaaaaaaaaaaaaaaaaaammmmmmmmmmmmmmmmmmmmmm",
"aaaaaaaaaaaaaaaaaaaaaammmmmmmmmmmmmmmmmmmmmm",
"aaaaaaaaaaaaaaaaaaaaaammmmmmmmmmmmmmmmmmmmmm",
"aaaaaaaaaaaaaaaaaaaaaammmmmmmmmmmmmmmmmmmmmm",
"aaaaaaaaaaaaaaaaaaaaaammmmmmmmmmmmmmmmmmmmmm",
"aaaaaaaaaaaaaaaaaaaaaalmmmmmmmmmmmmmmmmmmmmm",
"aaaaaaaaaaaaaaaaaaaaaakmmmmmmmmmmmmmmmmmmmmm",
"aaaaaaaaaaaaaaaaaaaaaajmmmmmmmmmmmmmmmmmmmmm",
"aaaaaaaaaaaaaaaaaaaaaahmmmmmmmmmmmmmmmmmmmmm",
"aaaaaaaaaaaaaaaaaaaaaafmmmmmmmmmmmmmmmmmmmmm",
"aaaaaaaaaaaaaaaaaaaaaadmmmmmmmmmmmmmmmmmmmmm",
"aaaaaaaaaaaaaaaaaaaaaabmmmmmmmmmmmmmmmmmmmmm",
"aaaaaaaaaaaaaaaaaaaaaaakmmmmmmmmmmmmmmmmmmmm",
"aaaaaaaaaaaaaaaaaaaaaaahmmmmmmmmmmmmmmmmmmmm",
"aaaaaaaaaaaaaaaaaaaaaaadmmmmmmmmmmmmmmmmmmmm",
"aaaaaaaaaaaaaaaaaaaaaaaalmmmmmmmmmmmmmmmmmmm",
"aaaaaaaaaaaaaaaaaaaaaaaahmmmmmmmmmmmmmmmmmmm",
"aaaaaaaaaaaaaaaaaaaaaaaacmmmmmmmmmmmmmmmmmmm",
"aaaaaaaaaaaaaaaaaaaaaaaaajmmmmmmmmmmmmmmmmmm",
"aaaaaaaaaaaaaaaaaaaaaaaaaemmmmmmmmmmmmmmmmmm",
"aaaaaaaaaaaaaaaaaaaaaaaaaakmmmmmmmmmmmmmmmmm",
"aaaaaaaaaaaaaaaaaaaaaaaaaadmmmmmmmmmmmmmmmmm",
"aaaaaaaaaaaaaaaaaaaaaaaaaaaimmmmmmmmmmmmmmmm",
"aaaaaaaaaaaaaaaaaaaaaaaaaaablmmmmmmmmmmmmmmm",
"aaaaaaaaaaaaaaaaaaaaaaaaaaaaemmmmmmmmmmmmmmm",
"aaaaaaaaaaaaaaaaaaaaaaaaaaaaagmmmmmmmmmmmmmm",
"aaaaaaaaaaaaaaaaaaaaaaaaaaaaaahmmmmmmmmmmmmm",
"aaaaaaaaaaaaaaaaaaaaaaaaaaaaaaaimmmmmmmmmmmm",
"aaaaaaaaaaaaaaaaaaaaaaaaaaaaaaaagmmmmmmmmmmm",
"aaaaaaaaaaaaaaaaaaaaaaaaaaaaaaaaaelmmmmmmmmm",
"aaaaaaaaaaaaaaaaaaaaaaaaaaaaaaaaaabimmmmmmmm",
"aaaaaaaaaaaaaaaaaaaaaaaaaaaaaaaaaaaacimmmmmm",
"aaaaaaaaaaaaaaaaaaaaaaaaaaaaaaaaaaaaaabehklm"};
