/* XPM */
static char *wave[] = {
"44 84 13 1",
"a c #666666",
"b c #716c60",
"c c #7d735b",
"d c #887a55",
"e c #93804f",
"f c #9f864a",
"g c #aa8d44",
"h c #b5943e",
"i c #c19a39",
"j c #cca033",
"k c #d7a72d",
"l c #e3ae28",
"m c #eeb422",
"mmmmmmmmmmmmmmmmmmmmmmmmmmmmmmmmmmmmmmlifcba",
"mmmmmmmmmmmmmmmmmmmmmmmmmmmmmmmmmmmmkeaaaaaa",
"mmmmmmmmmmmmmmmmmmmmmmmmmmmmmmmmmmleaaaaaaaa",
"mmmmmmmmmmmmmmmmmmmmmmmmmmmmmmmmmibaaaaaaaaa",
"mmmmmmmmmmmmmmmmmmmmmmmmmmmmmmmmgaaaaaaaaaaa",
"mmmmmmmmmmmmmmmmmmmmmmmmmmmmmmmeaaaaaaaaaaaa",
"mmmmmmmmmmmmmmmmmmmmmmmmmmmmmmfaaaaaaaaaaaaa",
"mmmmmmmmmmmmmmmmmmmmmmmmmmmmmgaaaaaaaaaaaaaa",
"mmmmmmmmmmmmmmmmmmmmmmmmmmmmiaaaaaaaaaaaaaaa",
"mmmmmmmmmmmmmmmmmmmmmmmmmmmlbaaaaaaaaaaaaaaa",
"mmmmmmmmmmmmmmmmmmmmmmmmmmmeaaaaaaaaaaaaaaaa",
"mmmmmmmmmmmmmmmmmmmmmmmmmmjaaaaaaaaaaaaaaaaa",
"mmmmmmmmmmmmmmmmmmmmmmmmmmcaaaaaaaaaaaaaaaaa",
"mmmmmmmmmmmmmmmmmmmmmmmmmiaaaaaaaaaaaaaaaaaa",
"mmmmmmmmmmmmmmmmmmmmmmmmmdaaaaaaaaaaaaaaaaaa",
"mmmmmmmmmmmmmmmmmmmmmmmmkaaaaaaaaaaaaaaaaaaa",
"mmmmmmmmmmmmmmmmmmmmmmmmfaaaaaaaaaaaaaaaaaaa",
"mmmmmmmmmmmmmmmmmmmmmmmmbaaaaaaaaaaaaaaaaaaa",
"mmmmmmmmmmmmmmmmmmmmmmmjaaaaaaaaaaaaaaaaaaaa",
"mmmmmmmmmmmmmmmmmmmmmmmfaaaaaaaaaaaaaaaaaaaa",
"mmmmmmmmmmmmmmmmmmmmmmmcaaaaaaaaaaaaaaaaaaaa",
"mmmmmmmmmmmmmmmmmmmmmmlaaaaaaaaaaaaaaaaaaaaa",
"mmmmmmmmmmmmmmmmmmmmmmjaaaaaaaaaaaaaaaaaaaaa",
"mmmmmmmmmmmmmmmmmmmmmmhaaaaaaaaaaaaaaaaaaaaa",
"mmmmmmmmmmmmmmmmmmmmmmfaaaaaaaaaaaaaaaaaaaaa",
"mmmmmmmmmmmmmmmmmmmmmmdaaaaaaaaaaaaaaaaaaaaa",
"mmmmmmmmmmmmmmmmmmmmmmcaaaaaaaaaaaaaaaaaaaaa",
"mmmmmmmmmmmmmmmmmmmmmmbaaaaaaaaaaaaaaaaaaaaa",
"mmmmmmmmmmmmmmmmmmmmmmaaaaaaaaaaaaaaaaaaaaaa",
"mmmmmmmmmmmmmmmmmmmmmmaaaaaaaaaaaaaaaaaaaaaa",
"mmmmmmmmmmmmmmmmmmmmmmaaaaaaaaaaaaaaaaaaaaaa",
"mmmmmmmmmmmmmmmmmmmmmmaaaaaaaaaaaaaaaaaaaaaa",
"mmmmmmmmmmmmmmmmmmmmmmaaaaaaaaaaaaaaaaaaaaaa",
"mmmmmmmmmmmmmmmmmmmmmmaaaaaaaaaaaaaaaaaaaaaa",
"mmmmmmmmmmmmmmmmmmmmmmaaaaaaaaaaaaaaaaaaaaaa",
"mmmmmmmmmmmmmmmmmmmmmmaaaaaaaaaaaaaaaaaaaaaa",
"mmmmmmmmmmmmmmmmmmmmmmaaaaaaaaaaaaaaaaaaaaaa",
"mmmmmmmmmmmmmmmmmmmmmmaaaaaaaaaaaaaaaaaaaaaa",
"mmmmmmmmmmmmmmmmmmmmmmaaaaaaaaaaaaaaaaaaaaaa",
"mmmmmmmmmmmmmmmmmmmmmmaaaaaaaaaaaaaaaaaaaaaa",
"mmmmmmmmmmmmmmmmmmmmmmaaaaaaaaaaaaaaaaaaaaaa",
"mmmmmmmmmmmmmmmmmmmmmmaaaaaaaaaaaaaaaaaaaaaa",
"mmmmmmmmmmmmmmmmmmmmmmaaaaaaaaaaaaaaaaaaaaaa",
"mmmmmmmmmmmmmmmmmmmmmmaaaaaaaaaaaaaaaaaaaaaa",
"mmmmmmmmmmmmmmmmmmmmmmaaaaaaaaaaaaaaaaaaaaaa",
"mmmmmmmmmmmmmmmmmmmmmmaaaaaaaaaaaaaaaaaaaaaa",
"mmmmmmmmmmmmmmmmmmmmmmaaaaaaaaaaaaaaaaaaaaaa",
"mmmmmmmmmmmmmmmmmmmmmmaaaaaaaaaaaaaaaaaaaaaa",
"mmmmmmmmmmmmmmmmmmmmmmaaaaaaaaaaaaaaaaaaaaaa",
"mmmmmmmmmmmmmmmmmmmmmmaaaaaaaaaaaaaaaaaaaaaa",
"mmmmmmmmmmmmmmmmmmmmmmaaaaaaaaaaaaaaaaaaaaaa",
"mmmmmmmmmmmmmmmmmmmmmmaaaaaaaaaaaaaaaaaaaaaa",
"mmmmmmmmmmmmmmmmmmmmmmaaaaaaaaaaaaaaaaaaaaaa",
"mmmmmmmmmmmmmmmmmmmmmmaaaaaaaaaaaaaaaaaaaaaa",
"mmmmmmmmmmmmmmmmmmmmmmaaaaaaaaaaaaaaaaaaaaaa",
"mmmmmmmmmmmmmmmmmmmmmmaaaaaaaaaaaaaaaaaaaaaa",
"mmmmmmmmmmmmmmmmmmmmmlaaaaaaaaaaaaaaaaaaaaaa",
"mmmmmmmmmmmmmmmmmmmmmkaaaaaaaaaaaaaaaaaaaaaa",
"mmmmmmmmmmmmmmmmmmmmmjaaaaaaaaaaaaaaaaaaaaaa",
"mmmmmmmmmmmmmmmmmmmmmhaaaaaaaaaaaaaaaaaaaaaa",
"mmmmmmmmmmmmmmmmmmmmmfaaaaaaaaaaaaaaaaaaaaaa",
"mmmmmmmmmmmmmmmmmmmmmdaaaaaaaaaaaaaaaaaaaaaa",
"mmmmmmmmmmmmmmmmmmmmmbaaaaaaaaaaaaaaaaaaaaaa",
"mmmmmmmmmmmmmmmmmmmmkaaaaaaaaaaaaaaaaaaaaaaa",
"mmmmmmmmmmmmmmmmmmmmhaaaaaaaaaaaaaaaaaaaaaaa",
"mmmmmmmmmmmmmmmmmmmmdaaaaaaaaaaaaaaaaaaaaaaa",
"mmmmmmmmmmmmmmmmmmmlaaaaaaaaaaaaaaaaaaaaaaaa",
"mmmmmmmmmmmmmmmmmmmhaaaaaaaaaaaaaaaaaaaaaaaa",
"mmmmmmmmmmmmmmmmmmmcaaaaaaaaaaaaaaaaaaaaaaaa",
"mmmmmmmmmmmmmmmmmmjaaaaaaaaaaaaaaaaaaaaaaaaa",
"mmmmmmmmmmmmmmmmmmeaaaaaaaaaaaaaaaaaaaaaaaaa",
"mmmmmmmmmmmmmmmmmkaaaaaaaaaaaaaaaaaaaaaaaaaa",
"mmmmmmmmmmmmmmmmmdaaaaaaaaaaaaaaaaaaaaaaaaaa",
"mmmmmmmmmmmmmmmmiaaaaaaaaaaaaaaaaaaaaaaaaaaa",
"mmmmmmmmmmmmmmmlbaaaaaaaaaaaaaaaaaaaaaaaaaaa",
"mmmmmmmmmmmmmmmeaaaaaaaaaaaaaaaaaaaaaaaaaaaa",
"mmmmmmmmmmmmmmgaaaaaaaaaaaaaaaaaaaaaaaaaaaaa",
"mmmmmmmmmmmmmhaaaaaaaaaaaaaaaaaaaaaaaaaaaaaa",
"mmmmmmmmmmmmiaaaaaaaaaaaaaaaaaaaaaaaaaaaaaaa",
"mmmmmmmmmmmgaaaaaaaaaaaaaaaaaaaaaaaaaaaaaaaa",
"mmmmmmmmmleaaaaaaaaaaaaaaaaaaaaaaaaaaaaaaaaa",
"mmmmmmmmibaaaaaaaaaaaaaaaaaaaaaaaaaaaaaaaaaa",
"mmmmmmicaaaaaaaaaaaaaaaaaaaaaaaaaaaaaaaaaaaa",
"mlkhebaaaaaaaaaaaaaaaaaaaaaaaaaaaaaaaaaaaaaa"};
