/* XPM */
static char *wave[] = {
"44 84 13 1",
"a c #292923",
"b c #3a3725",
"c c #4b4627",
"d c #5c5429",
"e c #6d622b",
"f c #7e702d",
"g c #8e7e2f",
"h c #9f8d31",
"i c #b09b33",
"j c #c1a935",
"k c #d2b837",
"l c #e3c639",
"m c #f4d43b",
"mmmmmmmmmmmmmmmmmmmmmmmmmmmmmmmmmmmmmmlifcba",
"mmmmmmmmmmmmmmmmmmmmmmmmmmmmmmmmmmmmkeaaaaaa",
"mmmmmmmmmmmmmmmmmmmmmmmmmmmmmmmmmmleaaaaaaaa",
"mmmmmmmmmmmmmmmmmmmmmmmmmmmmmmmmmibaaaaaaaaa",
"mmmmmmmmmmmmmmmmmmmmmmmmmmmmmmmmgaaaaaaaaaaa",
"mmmmmmmmmmmmmmmmmmmmmmmmmmmmmmmeaaaaaaaaaaaa",
"mmmmmmmmmmmmmmmmmmmmmmmmmmmmmmfaaaaaaaaaaaaa",
"mmmmmmmmmmmmmmmmmmmmmmmmmmmmmgaaaaaaaaaaaaaa",
"mmmmmmmmmmmmmmmmmmmmmmmmmmmmiaaaaaaaaaaaaaaa",
"mmmmmmmmmmmmmmmmmmmmmmmmmmmlbaaaaaaaaaaaaaaa",
"mmmmmmmmmmmmmmmmmmmmmmmmmmmeaaaaaaaaaaaaaaaa",
"mmmmmmmmmmmmmmmmmmmmmmmmmmjaaaaaaaaaaaaaaaaa",
"mmmmmmmmmmmmmmmmmmmmmmmmmmcaaaaaaaaaaaaaaaaa",
"mmmmmmmmmmmmmmmmmmmmmmmmmiaaaaaaaaaaaaaaaaaa",
"mmmmmmmmmmmmmmmmmmmmmmmmmdaaaaaaaaaaaaaaaaaa",
"mmmmmmmmmmmmmmmmmmmmmmmmkaaaaaaaaaaaaaaaaaaa",
"mmmmmmmmmmmmmmmmmmmmmmmmfaaaaaaaaaaaaaaaaaaa",
"mmmmmmmmmmmmmmmmmmmmmmmmbaaaaaaaaaaaaaaaaaaa",
"mmmmmmmmmmmmmmmmmmmmmmmjaaaaaaaaaaaaaaaaaaaa",
"mmmmmmmmmmmmmmmmmmmmmmmfaaaaaaaaaaaaaaaaaaaa",
"mmmmmmmmmmmmmmmmmmmmmmmcaaaaaaaaaaaaaaaaaaaa",
"mmmmmmmmmmmmmmmmmmmmmmlaaaaaaaaaaaaaaaaaaaaa",
"mmmmmmmmmmmmmmmmmmmmmmjaaaaaaaaaaaaaaaaaaaaa",
"mmmmmmmmmmmmmmmmmmmmmmhaaaaaaaaaaaaaaaaaaaaa",
"mmmmmmmmmmmmmmmmmmmmmmfaaaaaaaaaaaaaaaaaaaaa",
"mmmmmmmmmmmmmmmmmmmmmmdaaaaaaaaaaaaaaaaaaaaa",
"mmmmmmmmmmmmmmmmmmmmmmcaaaaaaaaaaaaaaaaaaaaa",
"mmmmmmmmmmmmmmmmmmmmmmbaaaaaaaaaaaaaaaaaaaaa",
"mmmmmmmmmmmmmmmmmmmmmmaaaaaaaaaaaaaaaaaaaaaa",
"mmmmmmmmmmmmmmmmmmmmmmaaaaaaaaaaaaaaaaaaaaaa",
"mmmmmmmmmmmmmmmmmmmmmmaaaaaaaaaaaaaaaaaaaaaa",
"mmmmmmmmmmmmmmmmmmmmmmaaaaaaaaaaaaaaaaaaaaaa",
"mmmmmmmmmmmmmmmmmmmmmmaaaaaaaaaaaaaaaaaaaaaa",
"mmmmmmmmmmmmmmmmmmmmmmaaaaaaaaaaaaaaaaaaaaaa",
"mmmmmmmmmmmmmmmmmmmmmmaaaaaaaaaaaaaaaaaaaaaa",
"mmmmmmmmmmmmmmmmmmmmmmaaaaaaaaaaaaaaaaaaaaaa",
"mmmmmmmmmmmmmmmmmmmmmmaaaaaaaaaaaaaaaaaaaaaa",
"mmmmmmmmmmmmmmmmmmmmmmaaaaaaaaaaaaaaaaaaaaaa",
"mmmmmmmmmmmmmmmmmmmmmmaaaaaaaaaaaaaaaaaaaaaa",
"mmmmmmmmmmmmmmmmmmmmmmaaaaaaaaaaaaaaaaaaaaaa",
"mmmmmmmmmmmmmmmmmmmmmmaaaaaaaaaaaaaaaaaaaaaa",
"mmmmmmmmmmmmmmmmmmmmmmaaaaaaaaaaaaaaaaaaaaaa",
"mmmmmmmmmmmmmmmmmmmmmmaaaaaaaaaaaaaaaaaaaaaa",
"mmmmmmmmmmmmmmmmmmmmmmaaaaaaaaaaaaaaaaaaaaaa",
"mmmmmmmmmmmmmmmmmmmmmmaaaaaaaaaaaaaaaaaaaaaa",
"mmmmmmmmmmmmmmmmmmmmmmaaaaaaaaaaaaaaaaaaaaaa",
"mmmmmmmmmmmmmmmmmmmmmmaaaaaaaaaaaaaaaaaaaaaa",
"mmmmmmmmmmmmmmmmmmmmmmaaaaaaaaaaaaaaaaaaaaaa",
"mmmmmmmmmmmmmmmmmmmmmmaaaaaaaaaaaaaaaaaaaaaa",
"mmmmmmmmmmmmmmmmmmmmmmaaaaaaaaaaaaaaaaaaaaaa",
"mmmmmmmmmmmmmmmmmmmmmmaaaaaaaaaaaaaaaaaaaaaa",
"mmmmmmmmmmmmmmmmmmmmmmaaaaaaaaaaaaaaaaaaaaaa",
"mmmmmmmmmmmmmmmmmmmmmmaaaaaaaaaaaaaaaaaaaaaa",
"mmmmmmmmmmmmmmmmmmmmmmaaaaaaaaaaaaaaaaaaaaaa",
"mmmmmmmmmmmmmmmmmmmmmmaaaaaaaaaaaaaaaaaaaaaa",
"mmmmmmmmmmmmmmmmmmmmmmaaaaaaaaaaaaaaaaaaaaaa",
"mmmmmmmmmmmmmmmmmmmmmlaaaaaaaaaaaaaaaaaaaaaa",
"mmmmmmmmmmmmmmmmmmmmmkaaaaaaaaaaaaaaaaaaaaaa",
"mmmmmmmmmmmmmmmmmmmmmjaaaaaaaaaaaaaaaaaaaaaa",
"mmmmmmmmmmmmmmmmmmmmmhaaaaaaaaaaaaaaaaaaaaaa",
"mmmmmmmmmmmmmmmmmmmmmfaaaaaaaaaaaaaaaaaaaaaa",
"mmmmmmmmmmmmmmmmmmmmmdaaaaaaaaaaaaaaaaaaaaaa",
"mmmmmmmmmmmmmmmmmmmmmbaaaaaaaaaaaaaaaaaaaaaa",
"mmmmmmmmmmmmmmmmmmmmkaaaaaaaaaaaaaaaaaaaaaaa",
"mmmmmmmmmmmmmmmmmmmmhaaaaaaaaaaaaaaaaaaaaaaa",
"mmmmmmmmmmmmmmmmmmmmdaaaaaaaaaaaaaaaaaaaaaaa",
"mmmmmmmmmmmmmmmmmmmlaaaaaaaaaaaaaaaaaaaaaaaa",
"mmmmmmmmmmmmmmmmmmmhaaaaaaaaaaaaaaaaaaaaaaaa",
"mmmmmmmmmmmmmmmmmmmcaaaaaaaaaaaaaaaaaaaaaaaa",
"mmmmmmmmmmmmmmmmmmjaaaaaaaaaaaaaaaaaaaaaaaaa",
"mmmmmmmmmmmmmmmmmmeaaaaaaaaaaaaaaaaaaaaaaaaa",
"mmmmmmmmmmmmmmmmmkaaaaaaaaaaaaaaaaaaaaaaaaaa",
"mmmmmmmmmmmmmmmmmdaaaaaaaaaaaaaaaaaaaaaaaaaa",
"mmmmmmmmmmmmmmmmiaaaaaaaaaaaaaaaaaaaaaaaaaaa",
"mmmmmmmmmmmmmmmlbaaaaaaaaaaaaaaaaaaaaaaaaaaa",
"mmmmmmmmmmmmmmmeaaaaaaaaaaaaaaaaaaaaaaaaaaaa",
"mmmmmmmmmmmmmmgaaaaaaaaaaaaaaaaaaaaaaaaaaaaa",
"mmmmmmmmmmmmmhaaaaaaaaaaaaaaaaaaaaaaaaaaaaaa",
"mmmmmmmmmmmmiaaaaaaaaaaaaaaaaaaaaaaaaaaaaaaa",
"mmmmmmmmmmmgaaaaaaaaaaaaaaaaaaaaaaaaaaaaaaaa",
"mmmmmmmmmleaaaaaaaaaaaaaaaaaaaaaaaaaaaaaaaaa",
"mmmmmmmmibaaaaaaaaaaaaaaaaaaaaaaaaaaaaaaaaaa",
"mmmmmmicaaaaaaaaaaaaaaaaaaaaaaaaaaaaaaaaaaaa",
"mlkhebaaaaaaaaaaaaaaaaaaaaaaaaaaaaaaaaaaaaaa"};
