/* XPM */
static char *wave[] = {
"44 84 13 1",
"a c #383838",
"b c #484538",
"c c #575238",
"d c #675f39",
"e c #776c39",
"f c #867939",
"g c #96863a",
"h c #a6933a",
"i c #b5a03a",
"j c #c5ad3a",
"k c #d5ba3a",
"l c #e4c73b",
"m c #f4d43b",
"mmmmmmmmmmmmmmmmmmmmmmmmmmmmmmmmmmmmmmlifcba",
"mmmmmmmmmmmmmmmmmmmmmmmmmmmmmmmmmmmmkeaaaaaa",
"mmmmmmmmmmmmmmmmmmmmmmmmmmmmmmmmmmleaaaaaaaa",
"mmmmmmmmmmmmmmmmmmmmmmmmmmmmmmmmmibaaaaaaaaa",
"mmmmmmmmmmmmmmmmmmmmmmmmmmmmmmmmgaaaaaaaaaaa",
"mmmmmmmmmmmmmmmmmmmmmmmmmmmmmmmeaaaaaaaaaaaa",
"mmmmmmmmmmmmmmmmmmmmmmmmmmmmmmfaaaaaaaaaaaaa",
"mmmmmmmmmmmmmmmmmmmmmmmmmmmmmgaaaaaaaaaaaaaa",
"mmmmmmmmmmmmmmmmmmmmmmmmmmmmiaaaaaaaaaaaaaaa",
"mmmmmmmmmmmmmmmmmmmmmmmmmmmlbaaaaaaaaaaaaaaa",
"mmmmmmmmmmmmmmmmmmmmmmmmmmmeaaaaaaaaaaaaaaaa",
"mmmmmmmmmmmmmmmmmmmmmmmmmmjaaaaaaaaaaaaaaaaa",
"mmmmmmmmmmmmmmmmmmmmmmmmmmcaaaaaaaaaaaaaaaaa",
"mmmmmmmmmmmmmmmmmmmmmmmmmiaaaaaaaaaaaaaaaaaa",
"mmmmmmmmmmmmmmmmmmmmmmmmmdaaaaaaaaaaaaaaaaaa",
"mmmmmmmmmmmmmmmmmmmmmmmmkaaaaaaaaaaaaaaaaaaa",
"mmmmmmmmmmmmmmmmmmmmmmmmfaaaaaaaaaaaaaaaaaaa",
"mmmmmmmmmmmmmmmmmmmmmmmmbaaaaaaaaaaaaaaaaaaa",
"mmmmmmmmmmmmmmmmmmmmmmmjaaaaaaaaaaaaaaaaaaaa",
"mmmmmmmmmmmmmmmmmmmmmmmfaaaaaaaaaaaaaaaaaaaa",
"mmmmmmmmmmmmmmmmmmmmmmmcaaaaaaaaaaaaaaaaaaaa",
"mmmmmmmmmmmmmmmmmmmmmmlaaaaaaaaaaaaaaaaaaaaa",
"mmmmmmmmmmmmmmmmmmmmmmjaaaaaaaaaaaaaaaaaaaaa",
"mmmmmmmmmmmmmmmmmmmmmmhaaaaaaaaaaaaaaaaaaaaa",
"mmmmmmmmmmmmmmmmmmmmmmfaaaaaaaaaaaaaaaaaaaaa",
"mmmmmmmmmmmmmmmmmmmmmmdaaaaaaaaaaaaaaaaaaaaa",
"mmmmmmmmmmmmmmmmmmmmmmcaaaaaaaaaaaaaaaaaaaaa",
"mmmmmmmmmmmmmmmmmmmmmmbaaaaaaaaaaaaaaaaaaaaa",
"mmmmmmmmmmmmmmmmmmmmmmaaaaaaaaaaaaaaaaaaaaaa",
"mmmmmmmmmmmmmmmmmmmmmmaaaaaaaaaaaaaaaaaaaaaa",
"mmmmmmmmmmmmmmmmmmmmmmaaaaaaaaaaaaaaaaaaaaaa",
"mmmmmmmmmmmmmmmmmmmmmmaaaaaaaaaaaaaaaaaaaaaa",
"mmmmmmmmmmmmmmmmmmmmmmaaaaaaaaaaaaaaaaaaaaaa",
"mmmmmmmmmmmmmmmmmmmmmmaaaaaaaaaaaaaaaaaaaaaa",
"mmmmmmmmmmmmmmmmmmmmmmaaaaaaaaaaaaaaaaaaaaaa",
"mmmmmmmmmmmmmmmmmmmmmmaaaaaaaaaaaaaaaaaaaaaa",
"mmmmmmmmmmmmmmmmmmmmmmaaaaaaaaaaaaaaaaaaaaaa",
"mmmmmmmmmmmmmmmmmmmmmmaaaaaaaaaaaaaaaaaaaaaa",
"mmmmmmmmmmmmmmmmmmmmmmaaaaaaaaaaaaaaaaaaaaaa",
"mmmmmmmmmmmmmmmmmmmmmmaaaaaaaaaaaaaaaaaaaaaa",
"mmmmmmmmmmmmmmmmmmmmmmaaaaaaaaaaaaaaaaaaaaaa",
"mmmmmmmmmmmmmmmmmmmmmmaaaaaaaaaaaaaaaaaaaaaa",
"mmmmmmmmmmmmmmmmmmmmmmaaaaaaaaaaaaaaaaaaaaaa",
"mmmmmmmmmmmmmmmmmmmmmmaaaaaaaaaaaaaaaaaaaaaa",
"mmmmmmmmmmmmmmmmmmmmmmaaaaaaaaaaaaaaaaaaaaaa",
"mmmmmmmmmmmmmmmmmmmmmmaaaaaaaaaaaaaaaaaaaaaa",
"mmmmmmmmmmmmmmmmmmmmmmaaaaaaaaaaaaaaaaaaaaaa",
"mmmmmmmmmmmmmmmmmmmmmmaaaaaaaaaaaaaaaaaaaaaa",
"mmmmmmmmmmmmmmmmmmmmmmaaaaaaaaaaaaaaaaaaaaaa",
"mmmmmmmmmmmmmmmmmmmmmmaaaaaaaaaaaaaaaaaaaaaa",
"mmmmmmmmmmmmmmmmmmmmmmaaaaaaaaaaaaaaaaaaaaaa",
"mmmmmmmmmmmmmmmmmmmmmmaaaaaaaaaaaaaaaaaaaaaa",
"mmmmmmmmmmmmmmmmmmmmmmaaaaaaaaaaaaaaaaaaaaaa",
"mmmmmmmmmmmmmmmmmmmmmmaaaaaaaaaaaaaaaaaaaaaa",
"mmmmmmmmmmmmmmmmmmmmmmaaaaaaaaaaaaaaaaaaaaaa",
"mmmmmmmmmmmmmmmmmmmmmmaaaaaaaaaaaaaaaaaaaaaa",
"mmmmmmmmmmmmmmmmmmmmmlaaaaaaaaaaaaaaaaaaaaaa",
"mmmmmmmmmmmmmmmmmmmmmkaaaaaaaaaaaaaaaaaaaaaa",
"mmmmmmmmmmmmmmmmmmmmmjaaaaaaaaaaaaaaaaaaaaaa",
"mmmmmmmmmmmmmmmmmmmmmhaaaaaaaaaaaaaaaaaaaaaa",
"mmmmmmmmmmmmmmmmmmmmmfaaaaaaaaaaaaaaaaaaaaaa",
"mmmmmmmmmmmmmmmmmmmmmdaaaaaaaaaaaaaaaaaaaaaa",
"mmmmmmmmmmmmmmmmmmmmmbaaaaaaaaaaaaaaaaaaaaaa",
"mmmmmmmmmmmmmmmmmmmmkaaaaaaaaaaaaaaaaaaaaaaa",
"mmmmmmmmmmmmmmmmmmmmhaaaaaaaaaaaaaaaaaaaaaaa",
"mmmmmmmmmmmmmmmmmmmmdaaaaaaaaaaaaaaaaaaaaaaa",
"mmmmmmmmmmmmmmmmmmmlaaaaaaaaaaaaaaaaaaaaaaaa",
"mmmmmmmmmmmmmmmmmmmhaaaaaaaaaaaaaaaaaaaaaaaa",
"mmmmmmmmmmmmmmmmmmmcaaaaaaaaaaaaaaaaaaaaaaaa",
"mmmmmmmmmmmmmmmmmmjaaaaaaaaaaaaaaaaaaaaaaaaa",
"mmmmmmmmmmmmmmmmmmeaaaaaaaaaaaaaaaaaaaaaaaaa",
"mmmmmmmmmmmmmmmmmkaaaaaaaaaaaaaaaaaaaaaaaaaa",
"mmmmmmmmmmmmmmmmmdaaaaaaaaaaaaaaaaaaaaaaaaaa",
"mmmmmmmmmmmmmmmmiaaaaaaaaaaaaaaaaaaaaaaaaaaa",
"mmmmmmmmmmmmmmmlbaaaaaaaaaaaaaaaaaaaaaaaaaaa",
"mmmmmmmmmmmmmmmeaaaaaaaaaaaaaaaaaaaaaaaaaaaa",
"mmmmmmmmmmmmmmgaaaaaaaaaaaaaaaaaaaaaaaaaaaaa",
"mmmmmmmmmmmmmhaaaaaaaaaaaaaaaaaaaaaaaaaaaaaa",
"mmmmmmmmmmmmiaaaaaaaaaaaaaaaaaaaaaaaaaaaaaaa",
"mmmmmmmmmmmgaaaaaaaaaaaaaaaaaaaaaaaaaaaaaaaa",
"mmmmmmmmmleaaaaaaaaaaaaaaaaaaaaaaaaaaaaaaaaa",
"mmmmmmmmibaaaaaaaaaaaaaaaaaaaaaaaaaaaaaaaaaa",
"mmmmmmicaaaaaaaaaaaaaaaaaaaaaaaaaaaaaaaaaaaa",
"mlkhebaaaaaaaaaaaaaaaaaaaaaaaaaaaaaaaaaaaaaa"};
