/* XPM */
static char *wave[] = {
"44 84 13 1",
"a c #666666",
"b c #726f62",
"c c #7e785f",
"d c #8a825b",
"e c #958b58",
"f c #a19454",
"g c #ad9d50",
"h c #b9a64d",
"i c #c5af49",
"j c #d0b846",
"k c #dcc242",
"l c #e8cb3f",
"m c #f4d43b",
"abcfilmmmmmmmmmmmmmmmmmmmmmmmmmmmmmmmmmmmmmm",
"aaaaaaekmmmmmmmmmmmmmmmmmmmmmmmmmmmmmmmmmmmm",
"aaaaaaaaelmmmmmmmmmmmmmmmmmmmmmmmmmmmmmmmmmm",
"aaaaaaaaabimmmmmmmmmmmmmmmmmmmmmmmmmmmmmmmmm",
"aaaaaaaaaaagmmmmmmmmmmmmmmmmmmmmmmmmmmmmmmmm",
"aaaaaaaaaaaaemmmmmmmmmmmmmmmmmmmmmmmmmmmmmmm",
"aaaaaaaaaaaaafmmmmmmmmmmmmmmmmmmmmmmmmmmmmmm",
"aaaaaaaaaaaaaagmmmmmmmmmmmmmmmmmmmmmmmmmmmmm",
"aaaaaaaaaaaaaaaimmmmmmmmmmmmmmmmmmmmmmmmmmmm",
"aaaaaaaaaaaaaaablmmmmmmmmmmmmmmmmmmmmmmmmmmm",
"aaaaaaaaaaaaaaaaemmmmmmmmmmmmmmmmmmmmmmmmmmm",
"aaaaaaaaaaaaaaaaajmmmmmmmmmmmmmmmmmmmmmmmmmm",
"aaaaaaaaaaaaaaaaacmmmmmmmmmmmmmmmmmmmmmmmmmm",
"aaaaaaaaaaaaaaaaaaimmmmmmmmmmmmmmmmmmmmmmmmm",
"aaaaaaaaaaaaaaaaaadmmmmmmmmmmmmmmmmmmmmmmmmm",
"aaaaaaaaaaaaaaaaaaakmmmmmmmmmmmmmmmmmmmmmmmm",
"aaaaaaaaaaaaaaaaaaafmmmmmmmmmmmmmmmmmmmmmmmm",
"aaaaaaaaaaaaaaaaaaabmmmmmmmmmmmmmmmmmmmmmmmm",
"aaaaaaaaaaaaaaaaaaaajmmmmmmmmmmmmmmmmmmmmmmm",
"aaaaaaaaaaaaaaaaaaaafmmmmmmmmmmmmmmmmmmmmmmm",
"aaaaaaaaaaaaaaaaaaaacmmmmmmmmmmmmmmmmmmmmmmm",
"aaaaaaaaaaaaaaaaaaaaalmmmmmmmmmmmmmmmmmmmmmm",
"aaaaaaaaaaaaaaaaaaaaajmmmmmmmmmmmmmmmmmmmmmm",
"aaaaaaaaaaaaaaaaaaaaahmmmmmmmmmmmmmmmmmmmmmm",
"aaaaaaaaaaaaaaaaaaaaafmmmmmmmmmmmmmmmmmmmmmm",
"aaaaaaaaaaaaaaaaaaaaadmmmmmmmmmmmmmmmmmmmmmm",
"aaaaaaaaaaaaaaaaaaaaacmmmmmmmmmmmmmmmmmmmmmm",
"aaaaaaaaaaaaaaaaaaaaabmmmmmmmmmmmmmmmmmmmmmm",
"aaaaaaaaaaaaaaaaaaaaaammmmmmmmmmmmmmmmmmmmmm",
"aaaaaaaaaaaaaaaaaaaaaammmmmmmmmmmmmmmmmmmmmm",
"aaaaaaaaaaaaaaaaaaaaaammmmmmmmmmmmmmmmmmmmmm",
"aaaaaaaaaaaaaaaaaaaaaammmmmmmmmmmmmmmmmmmmmm",
"aaaaaaaaaaaaaaaaaaaaaammmmmmmmmmmmmmmmmmmmmm",
"aaaaaaaaaaaaaaaaaaaaaammmmmmmmmmmmmmmmmmmmmm",
"aaaaaaaaaaaaaaaaaaaaaammmmmmmmmmmmmmmmmmmmmm",
"aaaaaaaaaaaaaaaaaaaaaammmmmmmmmmmmmmmmmmmmmm",
"aaaaaaaaaaaaaaaaaaaaaammmmmmmmmmmmmmmmmmmmmm",
"aaaaaaaaaaaaaaaaaaaaaammmmmmmmmmmmmmmmmmmmmm",
"aaaaaaaaaaaaaaaaaaaaaammmmmmmmmmmmmmmmmmmmmm",
"aaaaaaaaaaaaaaaaaaaaaammmmmmmmmmmmmmmmmmmmmm",
"aaaaaaaaaaaaaaaaaaaaaammmmmmmmmmmmmmmmmmmmmm",
"aaaaaaaaaaaaaaaaaaaaaammmmmmmmmmmmmmmmmmmmmm",
"aaaaaaaaaaaaaaaaaaaaaammmmmmmmmmmmmmmmmmmmmm",
"aaaaaaaaaaaaaaaaaaaaaammmmmmmmmmmmmmmmmmmmmm",
"aaaaaaaaaaaaaaaaaaaaaammmmmmmmmmmmmmmmmmmmmm",
"aaaaaaaaaaaaaaaaaaaaaammmmmmmmmmmmmmmmmmmmmm",
"aaaaaaaaaaaaaaaaaaaaaammmmmmmmmmmmmmmmmmmmmm",
"aaaaaaaaaaaaaaaaaaaaaammmmmmmmmmmmmmmmmmmmmm",
"aaaaaaaaaaaaaaaaaaaaaammmmmmmmmmmmmmmmmmmmmm",
"aaaaaaaaaaaaaaaaaaaaaammmmmmmmmmmmmmmmmmmmmm",
"aaaaaaaaaaaaaaaaaaaaaammmmmmmmmmmmmmmmmmmmmm",
"aaaaaaaaaaaaaaaaaaaaaammmmmmmmmmmmmmmmmmmmmm",
"aaaaaaaaaaaaaaaaaaaaaammmmmmmmmmmmmmmmmmmmmm",
"aaaaaaaaaaaaaaaaaaaaaammmmmmmmmmmmmmmmmmmmmm",
"aaaaaaaaaaaaaaaaaaaaaammmmmmmmmmmmmmmmmmmmmm",
"aaaaaaaaaaaaaaaaaaaaaammmmmmmmmmmmmmmmmmmmmm",
"aaaaaaaaaaaaaaaaaaaaaalmmmmmmmmmmmmmmmmmmmmm",
"aaaaaaaaaaaaaaaaaaaaaakmmmmmmmmmmmmmmmmmmmmm",
"aaaaaaaaaaaaaaaaaaaaaajmmmmmmmmmmmmmmmmmmmmm",
"aaaaaaaaaaaaaaaaaaaaaahmmmmmmmmmmmmmmmmmmmmm",
"aaaaaaaaaaaaaaaaaaaaaafmmmmmmmmmmmmmmmmmmmmm",
"aaaaaaaaaaaaaaaaaaaaaadmmmmmmmmmmmmmmmmmmmmm",
"aaaaaaaaaaaaaaaaaaaaaabmmmmmmmmmmmmmmmmmmmmm",
"aaaaaaaaaaaaaaaaaaaaaaakmmmmmmmmmmmmmmmmmmmm",
"aaaaaaaaaaaaaaaaaaaaaaahmmmmmmmmmmmmmmmmmmmm",
"aaaaaaaaaaaaaaaaaaaaaaadmmmmmmmmmmmmmmmmmmmm",
"aaaaaaaaaaaaaaaaaaaaaaaalmmmmmmmmmmmmmmmmmmm",
"aaaaaaaaaaaaaaaaaaaaaaaahmmmmmmmmmmmmmmmmmmm",
"aaaaaaaaaaaaaaaaaaaaaaaacmmmmmmmmmmmmmmmmmmm",
"aaaaaaaaaaaaaaaaaaaaaaaaajmmmmmmmmmmmmmmmmmm",
"aaaaaaaaaaaaaaaaaaaaaaaaaemmmmmmmmmmmmmmmmmm",
"aaaaaaaaaaaaaaaaaaaaaaaaaakmmmmmmmmmmmmmmmmm",
"aaaaaaaaaaaaaaaaaaaaaaaaaadmmmmmmmmmmmmmmmmm",
"aaaaaaaaaaaaaaaaaaaaaaaaaaaimmmmmmmmmmmmmmmm",
"aaaaaaaaaaaaaaaaaaaaaaaaaaablmmmmmmmmmmmmmmm",
"aaaaaaaaaaaaaaaaaaaaaaaaaaaaemmmmmmmmmmmmmmm",
"aaaaaaaaaaaaaaaaaaaaaaaaaaaaagmmmmmmmmmmmmmm",
"aaaaaaaaaaaaaaaaaaaaaaaaaaaaaahmmmmmmmmmmmmm",
"aaaaaaaaaaaaaaaaaaaaaaaaaaaaaaaimmmmmmmmmmmm",
"aaaaaaaaaaaaaaaaaaaaaaaaaaaaaaaagmmmmmmmmmmm",
"aaaaaaaaaaaaaaaaaaaaaaaaaaaaaaaaaelmmmmmmmmm",
"aaaaaaaaaaaaaaaaaaaaaaaaaaaaaaaaaabimmmmmmmm",
"aaaaaaaaaaaaaaaaaaaaaaaaaaaaaaaaaaaacimmmmmm",
"aaaaaaaaaaaaaaaaaaaaaaaaaaaaaaaaaaaaaabehklm"};
