/* XPM */
static char *wave[] = {
"44 84 13 1",
"a c #666666",
"b c #726f62",
"c c #7e785f",
"d c #8a825b",
"e c #958b58",
"f c #a19454",
"g c #ad9d50",
"h c #b9a64d",
"i c #c5af49",
"j c #d0b846",
"k c #dcc242",
"l c #e8cb3f",
"m c #f4d43b",
"mmmmmmmmmmmmmmmmmmmmmmmmmmmmmmmmmmmmmmlifcba",
"mmmmmmmmmmmmmmmmmmmmmmmmmmmmmmmmmmmmkeaaaaaa",
"mmmmmmmmmmmmmmmmmmmmmmmmmmmmmmmmmmleaaaaaaaa",
"mmmmmmmmmmmmmmmmmmmmmmmmmmmmmmmmmibaaaaaaaaa",
"mmmmmmmmmmmmmmmmmmmmmmmmmmmmmmmmgaaaaaaaaaaa",
"mmmmmmmmmmmmmmmmmmmmmmmmmmmmmmmeaaaaaaaaaaaa",
"mmmmmmmmmmmmmmmmmmmmmmmmmmmmmmfaaaaaaaaaaaaa",
"mmmmmmmmmmmmmmmmmmmmmmmmmmmmmgaaaaaaaaaaaaaa",
"mmmmmmmmmmmmmmmmmmmmmmmmmmmmiaaaaaaaaaaaaaaa",
"mmmmmmmmmmmmmmmmmmmmmmmmmmmlbaaaaaaaaaaaaaaa",
"mmmmmmmmmmmmmmmmmmmmmmmmmmmeaaaaaaaaaaaaaaaa",
"mmmmmmmmmmmmmmmmmmmmmmmmmmjaaaaaaaaaaaaaaaaa",
"mmmmmmmmmmmmmmmmmmmmmmmmmmcaaaaaaaaaaaaaaaaa",
"mmmmmmmmmmmmmmmmmmmmmmmmmiaaaaaaaaaaaaaaaaaa",
"mmmmmmmmmmmmmmmmmmmmmmmmmdaaaaaaaaaaaaaaaaaa",
"mmmmmmmmmmmmmmmmmmmmmmmmkaaaaaaaaaaaaaaaaaaa",
"mmmmmmmmmmmmmmmmmmmmmmmmfaaaaaaaaaaaaaaaaaaa",
"mmmmmmmmmmmmmmmmmmmmmmmmbaaaaaaaaaaaaaaaaaaa",
"mmmmmmmmmmmmmmmmmmmmmmmjaaaaaaaaaaaaaaaaaaaa",
"mmmmmmmmmmmmmmmmmmmmmmmfaaaaaaaaaaaaaaaaaaaa",
"mmmmmmmmmmmmmmmmmmmmmmmcaaaaaaaaaaaaaaaaaaaa",
"mmmmmmmmmmmmmmmmmmmmmmlaaaaaaaaaaaaaaaaaaaaa",
"mmmmmmmmmmmmmmmmmmmmmmjaaaaaaaaaaaaaaaaaaaaa",
"mmmmmmmmmmmmmmmmmmmmmmhaaaaaaaaaaaaaaaaaaaaa",
"mmmmmmmmmmmmmmmmmmmmmmfaaaaaaaaaaaaaaaaaaaaa",
"mmmmmmmmmmmmmmmmmmmmmmdaaaaaaaaaaaaaaaaaaaaa",
"mmmmmmmmmmmmmmmmmmmmmmcaaaaaaaaaaaaaaaaaaaaa",
"mmmmmmmmmmmmmmmmmmmmmmbaaaaaaaaaaaaaaaaaaaaa",
"mmmmmmmmmmmmmmmmmmmmmmaaaaaaaaaaaaaaaaaaaaaa",
"mmmmmmmmmmmmmmmmmmmmmmaaaaaaaaaaaaaaaaaaaaaa",
"mmmmmmmmmmmmmmmmmmmmmmaaaaaaaaaaaaaaaaaaaaaa",
"mmmmmmmmmmmmmmmmmmmmmmaaaaaaaaaaaaaaaaaaaaaa",
"mmmmmmmmmmmmmmmmmmmmmmaaaaaaaaaaaaaaaaaaaaaa",
"mmmmmmmmmmmmmmmmmmmmmmaaaaaaaaaaaaaaaaaaaaaa",
"mmmmmmmmmmmmmmmmmmmmmmaaaaaaaaaaaaaaaaaaaaaa",
"mmmmmmmmmmmmmmmmmmmmmmaaaaaaaaaaaaaaaaaaaaaa",
"mmmmmmmmmmmmmmmmmmmmmmaaaaaaaaaaaaaaaaaaaaaa",
"mmmmmmmmmmmmmmmmmmmmmmaaaaaaaaaaaaaaaaaaaaaa",
"mmmmmmmmmmmmmmmmmmmmmmaaaaaaaaaaaaaaaaaaaaaa",
"mmmmmmmmmmmmmmmmmmmmmmaaaaaaaaaaaaaaaaaaaaaa",
"mmmmmmmmmmmmmmmmmmmmmmaaaaaaaaaaaaaaaaaaaaaa",
"mmmmmmmmmmmmmmmmmmmmmmaaaaaaaaaaaaaaaaaaaaaa",
"mmmmmmmmmmmmmmmmmmmmmmaaaaaaaaaaaaaaaaaaaaaa",
"mmmmmmmmmmmmmmmmmmmmmmaaaaaaaaaaaaaaaaaaaaaa",
"mmmmmmmmmmmmmmmmmmmmmmaaaaaaaaaaaaaaaaaaaaaa",
"mmmmmmmmmmmmmmmmmmmmmmaaaaaaaaaaaaaaaaaaaaaa",
"mmmmmmmmmmmmmmmmmmmmmmaaaaaaaaaaaaaaaaaaaaaa",
"mmmmmmmmmmmmmmmmmmmmmmaaaaaaaaaaaaaaaaaaaaaa",
"mmmmmmmmmmmmmmmmmmmmmmaaaaaaaaaaaaaaaaaaaaaa",
"mmmmmmmmmmmmmmmmmmmmmmaaaaaaaaaaaaaaaaaaaaaa",
"mmmmmmmmmmmmmmmmmmmmmmaaaaaaaaaaaaaaaaaaaaaa",
"mmmmmmmmmmmmmmmmmmmmmmaaaaaaaaaaaaaaaaaaaaaa",
"mmmmmmmmmmmmmmmmmmmmmmaaaaaaaaaaaaaaaaaaaaaa",
"mmmmmmmmmmmmmmmmmmmmmmaaaaaaaaaaaaaaaaaaaaaa",
"mmmmmmmmmmmmmmmmmmmmmmaaaaaaaaaaaaaaaaaaaaaa",
"mmmmmmmmmmmmmmmmmmmmmmaaaaaaaaaaaaaaaaaaaaaa",
"mmmmmmmmmmmmmmmmmmmmmlaaaaaaaaaaaaaaaaaaaaaa",
"mmmmmmmmmmmmmmmmmmmmmkaaaaaaaaaaaaaaaaaaaaaa",
"mmmmmmmmmmmmmmmmmmmmmjaaaaaaaaaaaaaaaaaaaaaa",
"mmmmmmmmmmmmmmmmmmmmmhaaaaaaaaaaaaaaaaaaaaaa",
"mmmmmmmmmmmmmmmmmmmmmfaaaaaaaaaaaaaaaaaaaaaa",
"mmmmmmmmmmmmmmmmmmmmmdaaaaaaaaaaaaaaaaaaaaaa",
"mmmmmmmmmmmmmmmmmmmmmbaaaaaaaaaaaaaaaaaaaaaa",
"mmmmmmmmmmmmmmmmmmmmkaaaaaaaaaaaaaaaaaaaaaaa",
"mmmmmmmmmmmmmmmmmmmmhaaaaaaaaaaaaaaaaaaaaaaa",
"mmmmmmmmmmmmmmmmmmmmdaaaaaaaaaaaaaaaaaaaaaaa",
"mmmmmmmmmmmmmmmmmmmlaaaaaaaaaaaaaaaaaaaaaaaa",
"mmmmmmmmmmmmmmmmmmmhaaaaaaaaaaaaaaaaaaaaaaaa",
"mmmmmmmmmmmmmmmmmmmcaaaaaaaaaaaaaaaaaaaaaaaa",
"mmmmmmmmmmmmmmmmmmjaaaaaaaaaaaaaaaaaaaaaaaaa",
"mmmmmmmmmmmmmmmmmmeaaaaaaaaaaaaaaaaaaaaaaaaa",
"mmmmmmmmmmmmmmmmmkaaaaaaaaaaaaaaaaaaaaaaaaaa",
"mmmmmmmmmmmmmmmmmdaaaaaaaaaaaaaaaaaaaaaaaaaa",
"mmmmmmmmmmmmmmmmiaaaaaaaaaaaaaaaaaaaaaaaaaaa",
"mmmmmmmmmmmmmmmlbaaaaaaaaaaaaaaaaaaaaaaaaaaa",
"mmmmmmmmmmmmmmmeaaaaaaaaaaaaaaaaaaaaaaaaaaaa",
"mmmmmmmmmmmmmmgaaaaaaaaaaaaaaaaaaaaaaaaaaaaa",
"mmmmmmmmmmmmmhaaaaaaaaaaaaaaaaaaaaaaaaaaaaaa",
"mmmmmmmmmmmmiaaaaaaaaaaaaaaaaaaaaaaaaaaaaaaa",
"mmmmmmmmmmmgaaaaaaaaaaaaaaaaaaaaaaaaaaaaaaaa",
"mmmmmmmmmleaaaaaaaaaaaaaaaaaaaaaaaaaaaaaaaaa",
"mmmmmmmmibaaaaaaaaaaaaaaaaaaaaaaaaaaaaaaaaaa",
"mmmmmmicaaaaaaaaaaaaaaaaaaaaaaaaaaaaaaaaaaaa",
"mlkhebaaaaaaaaaaaaaaaaaaaaaaaaaaaaaaaaaaaaaa"};
